X: 1134
T: Lovely Nancy
S: James Winder Ms, Lancashire, 1835-41
A: Wyresdale, Lancashire
N: an approximation made from more than one 'claim'
M: 3/4
L: 1/8
Q: 1/4 = 90
R: air / country dance
K: G Major
|: B>A |
G2 G2 GB | A2 A2 AB/c/ | B2 ge dc | A4 B>A |
G2 G2 dB | A2 A2 ge | d>e d>B A>B | G4 :|
|: B>c |
d2 d2 ge | d4 B>c | d2 d2 gB | A4 B>A |
G2 G2 d>B | A2 A2 B>c | d>e d>B A>B | G4 :|
